img/svg/partners-image-5.svg

<svg width="143" height="40" viewBox="0 0 143 40" fill="none" xmlns="http://www.w3.org/2000/svg">
<path d="M123.508 2.67625C123.412 2.67291 114.293 2.67291 114.209 2.67625C113.209 2.70628 112.383 3.62721 112.335 4.574C112.285 5.58002 113.164 6.5777 114.209 6.62775C114.305 6.63108 123.425 6.63108 123.508 6.62775C124.508 6.59772 125.335 5.67679 125.382 4.72999C125.432 3.72314 124.553 2.72714 123.508 2.67625ZM65.4295 22.3895C65.3082 21.8762 65.2308 21.3535 65.1981 20.8271C65.1922 20.0755 65.1922 19.0195 65.1922 18.0476C65.2869 14.6909 65.9167 8.78743 61.3407 8.78743C58.2506 8.78743 56.4191 11.3734 55.9001 12.2201C55.8263 9.86185 53.9563 8.15096 51.0993 8.15096C49.2762 8.15096 48.1937 9.59408 48.1937 9.59408C48.1937 9.59408 49.9714 10.2072 49.9714 12.5838C49.9907 14.2855 49.9689 22.5714 49.9714 22.6064C50.0418 24.0746 51.0733 25.451 52.9181 25.451C54.763 25.451 55.9076 24.0412 55.9076 22.6039V15.2548C56.1642 14.0536 56.8443 12.8274 57.8682 12.8274C59.1973 12.8274 59.2719 14.298 59.2778 14.298L59.2719 21.411C59.2778 21.6429 59.308 21.8648 59.3482 22.0826C59.4096 22.4417 59.5243 22.7897 59.6887 23.1153C60.3973 24.5475 61.9654 25.4818 64.0727 25.4818C65.8941 25.4818 66.9775 24.0395 66.9775 24.0395C66.9775 24.0395 65.9083 23.665 65.4295 22.3895ZM109.418 22.3895C109.295 21.8765 109.218 21.3537 109.187 20.8271L109.192 3.22097C109.192 2.39863 108.863 1.60997 108.279 1.02849C107.694 0.447004 106.901 0.120331 106.075 0.120331C105.248 0.120331 104.455 0.447004 103.871 1.02849C103.286 1.60997 102.958 2.39863 102.958 3.22097L102.962 18.8134C102.978 20.2182 102.839 21.653 103.505 22.9434C104.211 24.3774 105.953 25.4818 108.058 25.4818C109.885 25.4818 110.965 24.0395 110.965 24.0395C110.965 24.0395 109.899 23.665 109.418 22.3895ZM39.7694 8.63395C35.0919 8.63395 31.3008 12.4044 31.3008 17.0583C31.3008 21.7113 35.0911 25.4818 39.7694 25.4818C44.4461 25.4818 48.2389 21.7113 48.2389 17.0583C48.2389 12.4044 44.4461 8.63311 39.7694 8.63311V8.63395ZM39.8315 21.904V21.9082C39.8248 21.9082 39.8189 21.9057 39.813 21.9057C39.8063 21.9057 39.8005 21.9082 39.7963 21.9082V21.904C38.1963 21.8748 37.3946 20.0472 37.3946 17.0575C37.3946 14.0736 38.4101 12.2434 39.7954 12.2109H39.8315C41.2151 12.2443 42.2315 14.0736 42.2315 17.0575C42.2315 20.0472 41.4315 21.8748 39.8315 21.904Z" fill="#472380"/>
<path d="M84.4785 22.3895C84.3549 21.8766 84.2772 21.3537 84.2462 20.8271L84.2504 3.22097C84.2504 2.39863 83.922 1.60997 83.3375 1.02849C82.7529 0.447004 81.9601 0.120331 81.1335 0.120331C80.3068 0.120331 79.514 0.447004 78.9294 1.02849C78.3449 1.60997 78.0165 2.39863 78.0165 3.22097L78.0039 11.5602C77.2551 10.5217 75.6031 8.76741 73.0019 8.76741C65.8431 8.76741 65.3911 21.4469 70.3 24.5834C71.6837 25.4676 73.7709 25.6937 75.3499 25.2858C76.44 25.003 78.1591 23.9378 78.4358 22.6648C78.4752 22.7582 78.5171 22.8517 78.5649 22.9434C79.271 24.3774 81.0135 25.4818 83.1183 25.4818C84.9447 25.4818 86.0256 24.0395 86.0256 24.0395C86.0256 24.0395 84.959 23.665 84.4785 22.3895ZM75.1889 21.3652V21.3677L75.1721 21.3668H75.1528V21.3652C73.5537 21.3418 72.7537 19.7469 72.7537 17.1442C72.7537 14.5433 73.7683 12.95 75.1528 12.9208V12.9183C75.1612 12.9183 75.1646 12.9208 75.1721 12.9208C75.178 12.9208 75.183 12.9183 75.1889 12.9183V12.9208C76.5759 12.95 77.5905 14.5433 77.5905 17.1434C77.5905 19.746 76.7889 21.3418 75.1889 21.3643V21.3652ZM100.695 20.269C100.695 20.269 99.7806 21.5153 96.2343 21.5153C92.688 21.5153 91.9274 18.7725 91.9274 18.7725C97.0955 18.7725 101.43 18.4289 101.43 14.2663C101.43 10.1038 96.7006 8.73154 93.8972 8.73154C89.2675 8.73154 85.8848 12.4044 85.8848 17.2527C85.8848 22.7132 90.2897 25.4818 93.9459 25.4818C100.386 25.4818 100.695 20.269 100.695 20.269ZM91.592 16.1023C91.774 14.7735 92.0935 13.0993 93.2943 12.3235C94.2922 11.6787 95.6901 12.4128 95.7111 13.654C95.7345 14.9654 94.8817 15.8579 93.696 16.1065C93.5702 16.1332 91.5744 16.2316 91.592 16.1023ZM125.63 20.269C125.63 20.269 124.716 21.5153 121.17 21.5153C117.624 21.5153 116.863 18.7725 116.863 18.7725C122.03 18.7725 126.366 18.4289 126.366 14.2663C126.366 10.1038 121.636 8.73154 118.833 8.73154C114.202 8.73154 110.819 12.4044 110.819 17.2527C110.819 22.7132 115.224 25.4818 118.881 25.4818C125.322 25.4818 125.63 20.269 125.63 20.269ZM116.528 16.1023C116.709 14.7735 117.029 13.0993 118.23 12.3235C119.228 11.6787 120.626 12.4128 120.647 13.654C120.669 14.9654 119.816 15.8579 118.631 16.1065C118.505 16.1332 116.51 16.2316 116.528 16.1023ZM137.325 20.7195H133.773C134.034 20.7195 136.661 18.5164 137.533 17.7815C139.814 15.8554 143.917 13.0768 142.721 9.4773L142.724 9.50232C142.505 8.64562 141.841 8.15096 141.841 8.15096C141.841 8.15096 141.593 8.85 140.749 9.16365C140.406 9.24706 140.06 9.30879 139.716 9.32965C139.433 9.33465 129.79 9.32965 129.79 9.32965C128.486 9.32798 127.393 10.3715 127.375 11.6019C127.36 12.8432 128.392 13.8384 129.713 13.8567L135.338 13.8918C132.73 15.3391 129.617 17.0516 128.036 19.6676C127.133 21.1691 126.166 23.484 126.533 25.2599C127.783 24.158 131.063 23.0911 133.56 23.6091C134.495 23.8035 135.489 24.2781 136.297 24.7811C140.979 27.6949 143.793 21.9958 141.554 19.4841C141.554 19.4841 140.278 20.7195 137.325 20.7195ZM31.7588 24.2639C28.8867 21.1316 27.9886 15.9222 27.8117 12.4586C27.6591 9.46729 27.8218 4.28621 30.1915 2.77802C29.3983 1.78535 27.8335 1.38661 26.6444 1.38661C23.9719 1.38661 22.6839 3.15674 21.7707 4.42969C21.4688 4.85012 16.9758 11.0164 16.9758 11.0164C16.9758 11.0164 13.1964 5.20047 12.7326 4.50143C12.0903 3.53712 10.8878 1.76533 8.77546 1.45919C7.86561 1.32739 5.50589 1.20726 4.22205 2.9607C6.43586 4.72249 6.38052 9.21036 5.89918 12.2743C4.45685 21.4703 0.523987 22.3178 0.523987 22.3178C2.53906 27.7308 7.72725 25.5919 9.19474 21.2751C10.144 18.4706 10.757 14.9186 10.8987 11.974L16.5925 20.6644C16.5925 20.6644 23.0411 12.0015 23.0411 12.009C21.9795 27.3295 27.2683 31.6723 31.8938 31.6723C36.5227 31.6723 38.0975 27.4613 38.0975 27.4613C35.5952 27.3112 33.4041 26.0591 31.7588 24.2639ZM46.2039 29.2473C46.2593 29.4725 46.2878 29.6936 46.3029 29.9155C46.3029 29.9839 46.2987 37.9311 46.3029 38.0262C46.323 38.6935 46.9435 39.2441 47.5825 39.2758C48.2617 39.31 48.9326 38.7227 48.967 38.0262C48.9703 37.9344 48.967 30.7772 48.967 30.7772C48.9611 30.1766 49.0198 29.5626 48.7347 29.0104C48.4328 28.3964 47.6865 27.9235 46.7867 27.9235C46.0043 27.9235 45.5414 28.5408 45.5414 28.5408C45.5414 28.5408 45.9976 28.7009 46.2039 29.2473ZM130.663 37.9536C130.608 37.7284 130.579 37.5082 130.563 37.2846C130.563 37.2179 130.568 29.2698 130.564 29.1764C130.544 28.5074 129.923 27.9568 129.285 27.9251C128.605 27.8918 127.934 28.4782 127.899 29.1764C127.897 29.2665 127.899 36.4229 127.899 36.4229C127.906 37.0235 127.847 37.6383 128.132 38.1913C128.434 38.8045 129.18 39.2774 130.08 39.2774C130.863 39.2774 131.325 38.6602 131.325 38.6602C131.325 38.6602 130.869 38.4992 130.662 37.9536H130.663ZM82.4576 32.0385C81.0714 32.0385 80.2521 33.1971 80.0198 33.5758L80.0115 33.5817C80.0115 33.198 80.0098 32.8952 80.0098 32.8801C79.9896 32.2128 79.3691 31.714 78.731 31.6831C78.0526 31.6489 77.3809 32.1836 77.3465 32.8801C77.344 32.9711 77.344 37.9536 77.3465 38.0212C77.3675 38.6877 77.9872 39.2391 78.6261 39.2699C79.3045 39.3033 79.9762 38.7169 80.0098 38.0212C80.0115 37.9695 80.0123 36.3436 80.0115 34.9431L80.0224 34.9347C80.1372 34.3975 80.4416 33.8478 80.9012 33.8478C81.4966 33.8478 81.5301 34.5068 81.5326 34.5068L81.5267 38.0212C81.5469 38.6877 82.1674 39.2391 82.8064 39.2699C83.4839 39.3033 84.1565 38.7169 84.19 38.0212L84.1867 36.1843C84.1867 34.2957 84.3846 32.0293 82.4567 32.0385H82.4576ZM116.508 32.0385C115.123 32.0385 114.303 33.1971 114.071 33.5758L114.062 33.5817V32.8801C114.04 32.2128 113.421 31.714 112.783 31.6831C112.104 31.6489 111.432 32.1836 111.398 32.8801C111.396 32.9711 111.396 37.9536 111.398 38.0212C111.418 38.6877 112.039 39.2391 112.677 39.2699C113.355 39.3033 114.027 38.7169 114.061 38.0212C114.063 37.9695 114.064 36.3436 114.063 34.9431L114.074 34.9347C114.188 34.3975 114.493 33.8478 114.953 33.8478C115.548 33.8478 115.581 34.5068 115.583 34.5068L115.577 38.0212C115.598 38.6877 116.219 39.2391 116.857 39.2699C117.536 39.3033 118.207 38.7169 118.241 38.0212L118.237 36.1843C118.237 34.2957 118.436 32.0293 116.508 32.0385ZM55.4105 32.0385C54.0252 32.0385 53.2051 33.1971 52.9728 33.5758L52.9653 33.5817C52.9653 33.198 52.9636 32.8952 52.9636 32.8801C52.9434 32.2128 52.3229 31.714 51.6839 31.6831C51.0064 31.6489 50.3338 32.1836 50.3003 32.8801C50.2978 32.9711 50.2978 37.9536 50.3003 38.0212C50.3204 38.6877 50.9418 39.2391 51.5799 39.2699C52.2575 39.3033 52.93 38.7169 52.9636 38.0212C52.9653 37.9695 52.9661 36.3436 52.9653 34.9431L52.9762 34.9347C53.091 34.3975 53.3954 33.8478 53.855 33.8478C54.4504 33.8478 54.4839 34.5068 54.4864 34.5068L54.4805 38.0212C54.5007 38.6877 55.1212 39.2391 55.7593 39.2699C56.4386 39.3033 57.1094 38.7169 57.1438 38.0212L57.1396 36.1843C57.1396 34.2957 57.3384 32.0293 55.4105 32.0385ZM106.852 31.7056C106.354 31.7055 105.861 31.803 105.4 31.9926C104.94 32.1821 104.522 32.46 104.169 32.8104C103.817 33.1607 103.538 33.5767 103.347 34.0345C103.156 34.4923 103.058 34.983 103.058 35.4786C103.058 35.9742 103.156 36.4649 103.346 36.9228C103.537 37.3807 103.816 37.7968 104.168 38.1473C104.52 38.4978 104.939 38.7759 105.399 38.9657C105.859 39.1554 106.352 39.2531 106.851 39.2533C107.857 39.2535 108.822 38.8561 109.533 38.1485C110.245 37.4409 110.645 36.4811 110.645 35.4803C110.645 34.4794 110.246 33.5194 109.534 32.8115C108.823 32.1036 107.858 31.7058 106.852 31.7056ZM106.879 37.65V37.6516H106.864V37.65C106.146 37.6366 105.788 36.8191 105.788 35.4794C105.788 34.1423 106.243 33.3231 106.864 33.3081H106.879C107.5 33.3223 107.954 34.1423 107.954 35.4794C107.954 36.8191 107.596 37.6366 106.879 37.65ZM92.683 32.7892C92.6612 32.0902 92.0004 31.5129 91.3329 31.4796C90.621 31.4445 89.9174 32.0593 89.8822 32.7892C89.8805 32.8393 89.8746 32.9477 89.8746 32.9677C89.5375 32.5023 88.7988 31.7165 87.6323 31.7165C84.4257 31.7165 84.2227 37.3972 86.4214 38.8028C87.042 39.1982 87.9778 39.3 88.6856 39.1173C89.0855 39.0138 89.6742 38.6743 89.9426 38.2414C90.1061 38.7986 90.6621 39.2241 91.2331 39.2524C91.9434 39.2875 92.6469 38.6735 92.683 37.9428C92.6863 37.8485 92.6855 32.8526 92.683 32.7892ZM88.6126 37.3605V37.3622H88.5967V37.3613C87.8797 37.3497 87.5216 36.6348 87.5216 35.4686C87.5216 34.3041 87.9761 33.5909 88.5967 33.5767H88.6134C89.234 33.5909 89.6893 34.3041 89.6893 35.4686C89.6893 36.6348 89.3287 37.3497 88.6126 37.3613V37.3605ZM126.706 32.7892C126.686 32.0902 126.025 31.5129 125.356 31.4796C124.645 31.4445 123.941 32.0593 123.905 32.7892C123.905 32.8393 123.898 32.9477 123.898 32.9677C123.562 32.5023 122.822 31.7165 121.656 31.7165C118.45 31.7165 118.246 37.3972 120.445 38.8028C121.066 39.1982 122.002 39.3 122.709 39.1173C123.109 39.0138 123.698 38.6743 123.966 38.2414C124.13 38.7986 124.686 39.2241 125.256 39.2524C125.967 39.2875 126.671 38.6735 126.707 37.9428C126.709 37.8485 126.708 32.8526 126.707 32.7892H126.706ZM122.637 37.3605V37.3622H122.621V37.3613C121.904 37.3497 121.546 36.6348 121.546 35.4686C121.546 34.3041 122 33.5909 122.621 33.5767H122.637C123.258 33.5909 123.713 34.3041 123.713 35.4686C123.713 36.6348 123.353 37.3497 122.637 37.3613V37.3605ZM102.222 33.4999C102.205 33.1839 102.074 32.8846 101.851 32.6582C101.629 32.4318 101.331 32.2939 101.014 32.2704C100.975 32.2662 100.939 32.2578 100.901 32.2578C100.308 32.2578 99.5617 32.7684 99.5617 33.4132L99.5651 35.8573H99.5617C99.5701 36.6198 99.5609 37.9961 99.5617 38.012C99.5936 38.671 100.114 39.1865 100.768 39.2416C100.808 39.2466 100.843 39.2533 100.882 39.2533C101.474 39.2533 102.222 38.7436 102.222 38.0988L102.218 36.0567H102.222C102.212 35.2934 102.222 33.5149 102.222 33.4999ZM102.212 30.1949C102.212 30.3673 102.177 30.5381 102.111 30.6974C102.045 30.8566 101.947 31.0013 101.825 31.1232C101.702 31.2451 101.557 31.3418 101.396 31.4077C101.236 31.4736 101.065 31.5076 100.891 31.5075C100.718 31.5074 100.546 31.4734 100.386 31.4074C100.226 31.3414 100.081 31.2446 99.9581 31.1226C99.8356 31.0007 99.7384 30.8559 99.6721 30.6966C99.6058 30.5373 99.5717 30.3665 99.5718 30.1941C99.5719 29.8459 99.7111 29.5119 99.9587 29.2658C100.206 29.0196 100.542 28.8814 100.892 28.8815C101.242 28.8816 101.578 29.0201 101.825 29.2664C102.073 29.5127 102.212 29.8467 102.212 30.1949ZM75.2258 31.9467C74.435 31.9801 74.0434 32.5657 73.505 33.3014C73.5017 33.3072 73.505 32.9619 73.505 32.9485C73.4849 32.2812 72.8644 31.7306 72.2271 31.6989C71.5478 31.6656 70.8761 32.2512 70.8426 32.9485V38.037H70.8401C70.8602 38.7044 71.4807 39.2549 72.1189 39.2866C72.7914 39.32 73.4564 38.7436 73.5017 38.0562H73.5076L73.5067 34.8329C73.547 34.36 73.7541 33.7702 74.1356 33.7735C74.6765 33.7777 74.1189 35.0782 75.3583 35.0782C77.136 35.0782 77.3264 31.8608 75.2258 31.9467ZM69.7935 36.9151C69.7935 36.9151 69.3827 37.474 67.7927 37.474C66.202 37.474 65.8599 36.2435 65.8599 36.2435C68.1785 36.2435 70.1231 36.0884 70.1231 34.2215C70.1231 32.3546 68.0015 31.739 66.7437 31.739C64.6674 31.739 63.1496 33.3865 63.1496 35.5612C63.1496 38.0112 65.1253 39.2524 66.7663 39.2524C69.6552 39.2524 69.7935 36.9151 69.7935 36.9151ZM65.7097 35.0448C65.7903 34.4492 65.9345 33.6976 66.4745 33.3498C66.9215 33.0612 67.5479 33.3898 67.5579 33.9462C67.568 34.5351 67.1856 34.9356 66.654 35.0473C66.5969 35.059 65.7014 35.1041 65.7097 35.0448ZM62.9886 37.8585C62.9886 37.8585 62.296 39.2533 61.0155 39.2533C59.9614 39.2533 58.665 38.3273 58.6105 36.9876L58.5979 33.4349H58.2407C58.0537 33.4349 57.7224 33.3239 57.7224 32.8401C57.7224 32.3563 58.0947 32.2528 58.2792 32.2528H58.5954C58.5937 31.6898 58.5929 31.3019 58.5937 31.2777C58.6272 30.5828 59.2981 29.9981 59.9748 30.0314C60.6121 30.064 61.2469 30.612 61.267 31.2777V32.252H62.3949C62.5509 32.252 62.9123 32.3538 62.9123 32.8476C62.9123 33.3406 62.5517 33.4349 62.3555 33.4349H61.2679V36.3954C61.2679 37.3555 62.0989 37.8543 62.9928 37.8568L62.9886 37.8585ZM98.6276 37.8585C98.6276 37.8585 97.9349 39.2533 96.6544 39.2533C95.6004 39.2533 94.3039 38.3273 94.2503 36.9876C94.2486 36.9751 94.2419 35.0465 94.2368 33.4349H93.8796C93.6926 33.4349 93.3622 33.3239 93.3622 32.8401C93.3622 32.3563 93.7337 32.2528 93.9182 32.2528H94.2343C94.2327 31.6898 94.2318 31.3019 94.2335 31.2777C94.267 30.5828 94.9379 29.9981 95.6138 30.0314C96.2511 30.064 96.8859 30.612 96.906 31.2777V32.252H98.0339C98.1898 32.252 98.5513 32.3538 98.5513 32.8476C98.5513 33.3406 98.1898 33.4349 97.9945 33.4349H96.906V36.3954C96.906 37.3555 97.7379 37.8543 98.6309 37.8568" fill="#472380"/>
</svg>

<svg width="143" height="40" viewBox="0 0 143 40" fill="none" xmlns="http://www.w3.org/2000/svg"><path d="M123.508 2.676c-.096-.003-9.215-.003-9.299 0-1 .03-1.826.951-1.874 1.898-.05 1.006.829 2.004 1.874 2.054.096.003 9.216.003 9.299 0 1-.03 1.827-.951 1.874-1.898.05-1.007-.829-2.003-1.874-2.054zM65.43 22.39a9.301 9.301 0 01-.232-1.563c-.006-.752-.006-1.808-.006-2.78.095-3.356.725-9.26-3.851-9.26-3.09 0-4.922 2.586-5.44 3.433-.075-2.358-1.945-4.069-4.802-4.069-1.823 0-2.905 1.443-2.905 1.443s1.777.613 1.777 2.99c.02 1.702-.002 9.987 0 10.022.07 1.469 1.102 2.845 2.947 2.845s2.99-1.41 2.99-2.847v-7.35c.256-1.2.936-2.427 1.96-2.427 1.33 0 1.404 1.471 1.41 1.471l-.006 7.113c.006.232.036.454.076.672.062.359.176.707.34 1.032.71 1.433 2.277 2.367 4.385 2.367 1.821 0 2.905-1.442 2.905-1.442s-1.07-.375-1.548-1.65zm43.988 0a8.958 8.958 0 01-.231-1.563l.005-17.606c0-.822-.329-1.611-.913-2.193a3.127 3.127 0 00-4.408 0 3.09 3.09 0 00-.913 2.193l.004 15.592c.016 1.405-.123 2.84.543 4.13.706 1.434 2.448 2.539 4.553 2.539 1.827 0 2.907-1.442 2.907-1.442s-1.066-.375-1.547-1.65zM39.769 8.634c-4.677 0-8.468 3.77-8.468 8.424 0 4.653 3.79 8.424 8.468 8.424 4.677 0 8.47-3.77 8.47-8.424s-3.793-8.425-8.47-8.425v.001zm.063 13.27v.004l-.019-.002-.017.002v-.004c-1.6-.03-2.401-1.857-2.401-4.846 0-2.984 1.015-4.815 2.4-4.847h.036c1.384.033 2.4 1.863 2.4 4.847 0 2.99-.8 4.817-2.4 4.846z" fill="#472380"/><path d="M84.478 22.39a8.902 8.902 0 01-.232-1.563l.004-17.606c0-.822-.328-1.611-.912-2.193a3.125 3.125 0 00-4.409 0 3.093 3.093 0 00-.913 2.193l-.012 8.34c-.749-1.04-2.4-2.794-5.002-2.794-7.159 0-7.61 12.68-2.702 15.816 1.384.885 3.47 1.11 5.05.703 1.09-.283 2.81-1.348 3.086-2.621.04.093.081.187.129.278.706 1.434 2.448 2.539 4.553 2.539 1.827 0 2.908-1.442 2.908-1.442s-1.067-.375-1.547-1.65zm-9.29-1.025v.003l-.016-.001h-.02v-.002c-1.598-.023-2.398-1.618-2.398-4.22 0-2.602 1.014-4.195 2.399-4.224v-.003c.008 0 .012.003.02.003.005 0 .01-.003.016-.003v.003c1.387.029 2.402 1.622 2.402 4.222 0 2.603-.802 4.199-2.402 4.221v.001zm25.507-1.096s-.914 1.246-4.46 1.246c-3.547 0-4.308-2.742-4.308-2.742 5.168 0 9.503-.344 9.503-4.507 0-4.162-4.73-5.534-7.533-5.534-4.63 0-8.012 3.672-8.012 8.52 0 5.461 4.405 8.23 8.06 8.23 6.441 0 6.75-5.213 6.75-5.213zm-9.103-4.167c.182-1.329.502-3.003 1.702-3.779.998-.644 2.396.09 2.417 1.331.023 1.311-.83 2.204-2.015 2.453-.126.026-2.122.125-2.104-.005zm34.038 4.167s-.914 1.246-4.46 1.246-4.307-2.742-4.307-2.742c5.167 0 9.503-.344 9.503-4.507 0-4.162-4.73-5.534-7.533-5.534-4.631 0-8.014 3.672-8.014 8.52 0 5.461 4.405 8.23 8.062 8.23 6.441 0 6.749-5.213 6.749-5.213zm-9.102-4.167c.181-1.329.501-3.003 1.702-3.779.998-.644 2.396.09 2.417 1.331.022 1.311-.831 2.204-2.016 2.453-.126.026-2.121.125-2.103-.005zm20.797 4.617h-3.552c.261 0 2.888-2.203 3.76-2.938 2.281-1.926 6.384-4.704 5.188-8.304l.003.025c-.219-.856-.883-1.351-.883-1.351s-.248.699-1.092 1.013a5.905 5.905 0 01-1.033.166c-.283.005-9.926 0-9.926 0-1.304-.002-2.397 1.041-2.415 2.272-.015 1.241 1.017 2.236 2.338 2.255l5.625.035c-2.608 1.447-5.721 3.16-7.302 5.776-.903 1.501-1.87 3.816-1.503 5.592 1.25-1.102 4.53-2.169 7.027-1.65.935.194 1.929.668 2.737 1.171 4.682 2.914 7.496-2.785 5.257-5.297 0 0-1.276 1.235-4.229 1.235zM31.759 24.264c-2.872-3.132-3.77-8.342-3.947-11.805-.153-2.992.01-8.173 2.38-9.681-.794-.993-2.358-1.391-3.548-1.391-2.672 0-3.96 1.77-4.873 3.043-.302.42-4.795 6.586-4.795 6.586s-3.78-5.816-4.243-6.515c-.643-.964-1.845-2.736-3.958-3.042-.91-.132-3.27-.252-4.553 1.502C6.436 4.722 6.381 9.21 5.9 12.274 4.457 21.47.524 22.318.524 22.318c2.015 5.413 7.203 3.274 8.67-1.043.95-2.804 1.563-6.356 1.705-9.301l5.694 8.69s6.448-8.663 6.448-8.655c-1.061 15.32 4.227 19.663 8.853 19.663 4.629 0 6.203-4.21 6.203-4.21-2.502-.15-4.693-1.403-6.338-3.198zm14.445 4.983c.055.226.084.447.099.669 0 .068-.004 8.015 0 8.11.02.667.64 1.218 1.28 1.25.679.034 1.35-.553 1.384-1.25.003-.092 0-7.249 0-7.249-.006-.6.053-1.214-.232-1.767-.302-.614-1.048-1.087-1.948-1.087-.783 0-1.246.618-1.246.618s.457.16.663.706zm84.459 8.707a3.986 3.986 0 01-.1-.67c0-.066.005-8.014.001-8.108-.02-.669-.641-1.22-1.279-1.25-.68-.034-1.351.552-1.386 1.25-.002.09 0 7.247 0 7.247.007.6-.052 1.215.233 1.768.302.613 1.048 1.086 1.948 1.086.783 0 1.245-.617 1.245-.617s-.456-.16-.663-.706h.001zm-48.205-5.916c-1.387 0-2.206 1.16-2.438 1.538l-.008.006c0-.384-.002-.687-.002-.702-.02-.667-.64-1.166-1.279-1.197-.678-.034-1.35.5-1.384 1.197-.003.091-.003 5.074 0 5.141.02.667.64 1.218 1.28 1.249.678.033 1.35-.553 1.383-1.249.001-.052.002-1.677.001-3.078l.011-.008c.115-.538.42-1.087.88-1.087.595 0 .628.659.63.659l-.005 3.514c.02.667.64 1.218 1.28 1.249.677.033 1.35-.553 1.383-1.249l-.003-1.837c0-1.888.198-4.155-1.73-4.145zm34.05 0c-1.385 0-2.205 1.16-2.437 1.538l-.009.006v-.702c-.022-.667-.641-1.166-1.279-1.197-.679-.034-1.351.5-1.385 1.197-.002.091-.002 5.074 0 5.141.02.667.641 1.218 1.279 1.249.678.033 1.35-.553 1.384-1.249.002-.052.003-1.677.002-3.078l.011-.008c.114-.538.419-1.087.879-1.087.595 0 .628.659.63.659l-.006 3.514c.021.667.642 1.218 1.28 1.249.679.033 1.35-.553 1.384-1.249l-.004-1.837c0-1.888.199-4.155-1.729-4.145zm-61.097 0c-1.386 0-2.206 1.16-2.438 1.538l-.008.006-.001-.702c-.02-.667-.641-1.166-1.28-1.197-.678-.034-1.35.5-1.384 1.197-.002.091-.002 5.074 0 5.141.02.667.642 1.218 1.28 1.249.678.033 1.35-.553 1.384-1.249.001-.052.002-1.677.001-3.078l.011-.008c.115-.538.42-1.087.879-1.087.595 0 .629.659.631.659l-.005 3.514c.02.667.64 1.218 1.278 1.249.68.033 1.35-.553 1.385-1.249l-.004-1.837c0-1.888.198-4.155-1.73-4.145zm51.441-.332a3.814 3.814 0 00-2.683 1.104 3.78 3.78 0 00-1.111 2.669 3.768 3.768 0 002.341 3.487 3.811 3.811 0 004.134-.818 3.762 3.762 0 00.001-5.337 3.803 3.803 0 00-2.682-1.105zm.027 5.944v.002h-.015v-.002c-.718-.013-1.076-.83-1.076-2.17 0-1.338.455-2.157 1.076-2.172h.015c.621.014 1.075.834 1.075 2.171 0 1.34-.358 2.158-1.075 2.171zm-14.196-4.86c-.022-.7-.683-1.277-1.35-1.31-.712-.035-1.416.58-1.45 1.31l-.008.178c-.338-.466-1.076-1.252-2.243-1.252-3.206 0-3.41 5.681-1.21 7.087.62.395 1.556.497 2.264.314.4-.103.988-.443 1.257-.876.163.558.72.983 1.29 1.011.71.035 1.414-.579 1.45-1.31.003-.093.002-5.09 0-5.153zm-4.07 4.57v.002h-.016c-.717-.012-1.075-.727-1.075-1.893 0-1.165.454-1.878 1.075-1.892h.016c.621.014 1.076.727 1.076 1.892 0 1.166-.36 1.88-1.076 1.892zm38.093-4.57c-.02-.7-.681-1.277-1.35-1.31-.711-.035-1.415.58-1.451 1.31 0 .05-.007.158-.007.178-.336-.466-1.076-1.252-2.242-1.252-3.206 0-3.41 5.681-1.211 7.087.621.395 1.557.497 2.264.314.4-.103.989-.443 1.257-.876.164.558.72.983 1.29 1.011.711.035 1.415-.579 1.451-1.31.002-.093.001-5.09 0-5.153h-.001zm-4.069 4.57v.002h-.016c-.717-.012-1.075-.727-1.075-1.893 0-1.165.454-1.878 1.075-1.892h.016c.621.014 1.076.727 1.076 1.892 0 1.166-.36 1.88-1.076 1.892zm-20.415-3.86a1.308 1.308 0 00-1.208-1.23c-.039-.004-.075-.012-.113-.012-.593 0-1.34.51-1.34 1.155l.004 2.444h-.003c.008.763-.001 2.14 0 2.155a1.303 1.303 0 001.206 1.23c.04.005.075.011.114.011.592 0 1.34-.51 1.34-1.154l-.004-2.042h.004c-.01-.764 0-2.542 0-2.557zm-.01-3.305a1.314 1.314 0 01-1.321 1.313 1.328 1.328 0 01-.933-.385 1.313 1.313 0 01-.386-.929c0-.348.14-.682.387-.928a1.323 1.323 0 012.253.929zm-26.986 1.752c-.791.033-1.183.619-1.721 1.354-.003.006 0-.34 0-.352-.02-.668-.64-1.218-1.278-1.25-.68-.033-1.35.552-1.384 1.25v5.088h-.003c.02.667.64 1.218 1.279 1.25.672.033 1.337-.543 1.383-1.23h.006l-.001-3.224c.04-.473.247-1.063.629-1.06.54.005-.017 1.305 1.222 1.305 1.778 0 1.968-3.217-.132-3.131zm-5.433 4.968s-.41.559-2 .559c-1.591 0-1.933-1.23-1.933-1.23 2.319 0 4.263-.156 4.263-2.023 0-1.866-2.122-2.482-3.38-2.482-2.076 0-3.593 1.647-3.593 3.822 0 2.45 1.975 3.691 3.616 3.691 2.89 0 3.027-2.337 3.027-2.337zm-4.083-1.87c.08-.596.225-1.347.765-1.695.447-.289 1.073.04 1.083.596.01.59-.372.99-.904 1.101-.057.012-.953.057-.944-.002zm-2.721 2.813s-.693 1.395-1.973 1.395c-1.055 0-2.351-.926-2.405-2.265l-.013-3.553h-.357c-.187 0-.519-.111-.519-.595s.373-.587.557-.587h.316c-.001-.563-.002-.951-.001-.975.033-.695.704-1.28 1.38-1.247.638.033 1.273.581 1.293 1.247v.974h1.128c.156 0 .517.102.517.596 0 .493-.36.587-.556.587h-1.088v2.96c0 .96.83 1.46 1.725 1.462l-.004.002zm35.639 0s-.693 1.395-1.974 1.395c-1.054 0-2.35-.926-2.404-2.265l-.013-3.553h-.357c-.187 0-.518-.111-.518-.595s.372-.587.556-.587h.316c-.001-.563-.002-.951 0-.975.033-.695.704-1.28 1.38-1.247.637.033 1.272.581 1.292 1.247v.974h1.128c.156 0 .517.102.517.596 0 .493-.361.587-.556.587h-1.089v2.96c0 .96.832 1.46 1.725 1.462" fill="#472380"/></svg>
